packages/ui-solid/icons/forward_24.svg

<svg width="24" height="24" viewBox="0 0 24 24" fill="none" xmlns="http://www.w3.org/2000/svg">
<path fill-rule="evenodd" clip-rule="evenodd" d="M12.2585 3.59733C11.9094 3.95113 11.9132 4.52096 12.267 4.8701L17.3062 9.84295H13.4062C11.484 9.84293 9.96064 9.84292 8.75591 9.98622C7.51876 10.1334 6.50022 10.4425 5.65123 11.1456C5.37838 11.3716 5.12732 11.6226 4.90135 11.8955C4.19821 12.7445 3.88913 13.763 3.74197 15.0002C3.59867 16.2049 3.59868 17.7282 3.59869 19.6504V19.7095C3.59869 20.2066 4.00164 20.6095 4.49869 20.6095C4.99575 20.6095 5.39869 20.2066 5.39869 19.7095C5.39869 17.715 5.40018 16.2988 5.52937 15.2128C5.65616 14.1469 5.89498 13.5177 6.28764 13.0436C6.44184 12.8574 6.61317 12.6861 6.79936 12.5319C7.27347 12.1392 7.90262 11.9004 8.96853 11.7736C10.0546 11.6444 11.4708 11.6429 13.4653 11.6429H17.3062L12.867 16.0237C12.5132 16.3728 12.5094 16.9426 12.8586 17.2964C13.2077 17.6502 13.7776 17.654 14.1313 17.3049L20.1317 11.3835C20.303 11.2144 20.3995 10.9837 20.3995 10.7429C20.3995 10.5022 20.303 10.2715 20.1317 10.1023L13.5313 3.5889C13.1775 3.23976 12.6077 3.24354 12.2585 3.59733Z" fill="#007AFF"/>
</svg>

<svg xmlns="http://www.w3.org/2000/svg" width="24" height="24" fill="none"><path fill="currentColor" fill-rule="evenodd" d="M12.259 3.597a.9.9 0 0 0 .008 1.273l5.04 4.973h-3.9c-1.923 0-3.446 0-4.651.143-1.237.147-2.256.457-3.105 1.16a5.7 5.7 0 0 0-.75.75c-.703.848-1.012 1.867-1.159 3.104-.143 1.205-.143 2.728-.143 4.65v.06a.9.9 0 1 0 1.8 0c0-1.995.001-3.411.13-4.497.127-1.066.366-1.695.759-2.17q.232-.28.511-.511c.474-.393 1.104-.632 2.17-.758 1.086-.13 2.502-.131 4.496-.131h3.841l-4.439 4.38a.9.9 0 1 0 1.264 1.282l6-5.921a.9.9 0 0 0 0-1.282l-6.6-6.513a.9.9 0 0 0-1.273.008" clip-rule="evenodd"/></svg>
